X:123456
T:123456
M:3/4
L:1/16
K:F
 _C4| F4 c4 A2 F2| G4 B4 c2 c2| B4 c4 c2 A2| G4 z4|
|: G2 A2| B4 d2 f2 e2 d2| c4 A4 F4| c4 d4 d2 B1| A8:|
